X:310
T:God, That Madest Earth and Heaven
%%stretchlast false
M:4/4
L:1/4
K:Eb clef=C1
"^I"[E,,E,G,E] "^I¹"[G,,E,B,E]/ "^Imaj7¹"[G,,E,B,D]/ "^IV"[A,,E,C] "^I¹"[G,,E,B,E] | "^ii"[F,,A,CF] "^ii¹"[A,,A,CF]/ "^IVmaj7"[A,,G,CE]/ "^V"[B,,F,B,D] "^iii"[G,,B,] | "^IV"[A,,E,B,C] [A,,E,A,C] "^iii¹"[B,,G,B,D] "^V7"[B,,F,A,D]/ [B,,F,A,D]/ | "^I"[E,,E,G,E]4 | [E,,E,G,E] "^I¹"[G,,E,B,E]/ "^Imaj7¹"[G,,E,B,D]/ "^IV"[A,,E,C] "^I¹"[G,,E,B,E] | "^ii"[F,,A,CF] "^ii¹"[A,,A,CF]/ "^IVmaj7"[A,,G,CE]/ "^V"[B,,F,B,D] "^iii"[G,,B,] | "^IV"[A,,E,B,C] [A,,E,A,C] "^iii¹"[B,,G,B,D] "^V7"[B,,F,A,D]/ [B,,F,A,D]/ | "^I"[E,,E,G,E]4 | "^IV¹"[C,E,A,A] "^I"[E,B,G] "^IV¹"[C,E,A,A] "^I¹"[G,,E,EB] | "^IV"[A,,A,Ec] "^v"[B,,F,_DB] "^IV¹"[C,E,CA] "^I"[E,G,B,G] | "^ii"[F,,F,CA] "^I¹"[G,,B,EG] "^ii¹"[A,,A,CF] "^vi"[C,G,CE] | "^ii"[F,,A,CG]3/2 "^ii¹"[A,,A,CF]/ "^i"[B,,F,B,E] "^V"[B,,F,B,D] | "^I¹"[G,,E,B,E]3/2 "^Imaj7¹"[G,,E,B,D]/ "^IV"[A,,E,A,C] "^I¹"[G,,E,B,E] | "^ii"[F,,A,CF] "^ii¹"[A,,A,CF]/ "^IVmaj7"[A,,G,CE]/ "^V"[B,,F,B,D] "^iii"[G,,B,] | "^IV"[A,,E,B,C] [A,,E,A,C] "^iii¹"[B,,G,B,D] "^V7"[B,,F,A,D]/ [B,,F,A,D]/ | "^I"[E,,E,G,E]4 |]
